X: 23101
T: Laura's
R: reel
M: 4/4
K: Amajor
E2CE cBAc|BecB AFED|CE~E2 DFAF|EAcA Bcdf|
ec~c2 dcBd|caec BAFE|CE~E2 DFAF|1 EAcB A3F:|2 EAcB A2cd||
|:ec~c2 AcEc|cAce aece|fd~d2 dcBA|GABa gfed|
cE~E2 AEAB|caec BAFE|CE~E2 DFAF|1 EAcB A2cd:|2 EAcB A3F||

